!!!!SEGMENT: pl-kk--kk-i-1--030_anonim--egredimini-et-videte.krn
!!!cenid: 15xx:743
!!!COM: Anonim
!!!COM-rismid: pe30004985
!!!CDT:
!!!CNT:
!!!OTL: Egredimini et videte
!!!PDT:
!!!AGN:
!!!SMS-siglum: PL-Kk
!!!SMS-shelfmark: Kk.I.1
!!!SMS-shelfwork: 030 W
!!!SMS-variant:
!!!SMS-altvar:
!!!NIFC-rismid: 300257984
!!!URL-scan: http://repozytorium.nifc.pl/skany/pl-kk-nut--i-1
!!!ONB-nifc: UWAGA: Cantus (s. 119v-120v, skan 0122-0123), Altus (s. 114v-116r, skan 0308-0309), Tenor (s. 102v-103r, skan 0493), Bassus (s. 108r-109r, skan 0670-0671).
!!!key: d:dor
**kern	**text	**text	**kern	**text	**text	**kern	**text	**text	**kern	**text	**text
*part4	*part4	*part4	*part3	*part3	*part3	*part2	*part2	*part2	*part1	*part1	*part1
*staff4	*staff4	*staff4	*staff3	*staff3	*staff3	*staff2	*staff2	*staff2	*staff1	*staff1	*staff1
*I"BASSVS	*	*	*I"TENOR	*	*	*I"ALTVS	*	*	*I"CANTVS	*	*
*I'B	*	*	*I'T	*	*	*I'A	*	*	*I'S	*	*
*Ibass	*	*	*Itenor	*	*	*Ialto	*	*	*Isoprn	*	*
*ICvox	*	*	*ICvox	*	*	*ICvox	*	*	*ICvox	*	*
*clefF4	*	*	*clefC4	*	*	*clefC4	*	*	*clefC3	*	*
*k[]	*	*	*k[]	*	*	*k[]	*	*	*k[]	*	*
*d:dor	*	*	*d:dor	*	*	*d:dor	*	*	*d:dor	*	*
*M2/1	*	*	*M2/1	*	*	*M2/1	*	*	*M2/1	*	*
*met(C|)	*	*	*met(C|)	*	*	*met(C|)	*	*	*met(C|)	*	*
*all\middle	*	*	*all\middle	*	*	*all\middle	*	*	*all\middle	*	*
=1-	=1-	=1-	=1-	=1-	=1-	=1-	=1-	=1-	=1-	=1-	=1-
!LO:TX:t=P:problem=tekst "Ave Maria" dopisany inną ręką i mniej kaligraficznym pismem	!	!	!LO:TX:t=P:problem=tekst "Ave Maria" dopisany inną ręką i mniej kaligraficznym pismem	!	!	!LO:TX:t=P:problem=tekst "Ave Maria" dopisany inną ręką i mniej kaligraficznym pismem	!	!	!LO:TX:t=P:problem=tekst "Ave Maria" dopisany inną ręką i mniej kaligraficznym pismem	!	!
2.F\	Eg-	a-	0F	E-	A-	0c	a-	E-	1f	E-	a-
4G\	.	.	.	.	.	.	.	.	.	.	.
2A\	.	.	.	.	.	.	.	.	2c/	-Gre-	-ve
2F\	.	.	.	.	.	.	.	.	1f\	-di-	a-
=2-	=2-	=2-	=2-	=2-	=2-	=2-	=2-	=2-	=2-	=2-	=2-
*	*	*	*lig	*	*	*	*	*	*	*	*
2G\	-gre-	-ve	1C	-Gre-	-ve	2.c\	-ve	-gre-	.	.	.
2.A\	-di-	Ma-	.	.	.	.	.	.	2e\	.	-ve
.	.	.	.	.	.	4B\	.	.	.	.	.
.	.	.	1D	.	Ma-	2A/	.	.	2.d/	.	Ma-
4G\	.	.	.	.	.	.	.	.	.	.	.
4F\	.	.	.	.	.	2B-X/	Ma-	-di-	.	.	.
4E/	.	.	.	.	.	.	.	.	4c/	.	.
*	*	*	*Xlig	*	*	*	*	*	*	*	*
=3-	=3-	=3-	=3-	=3-	=3-	=3-	=3-	=3-	=3-	=3-	=3-
*	*	*	*lig	*	*	*	*	*	*	*	*
!	!	!	!	!	!	!LO:TX:t=P:problem=pomyłka rytmiczna oznaczona przez dorysowanie "dziubka"	!	!	!	!	!
2.F\	.	-ri-	1D	-di-	-ri-	2.A/	-ri-	.	4d\	.	.
.	.	.	.	.	.	.	.	.	4e\	.	.
.	.	.	.	.	.	.	.	.	1f	.	-ri-
4E/	.	.	.	.	.	4G/	.	.	.	.	.
1D	.	-ri-	1A	.	.	4F/	.	.	.	.	.
.	.	.	.	.	.	4E/	.	.	.	.	.
.	.	.	.	.	.	2F/	.	.	4e\	.	.
.	.	.	.	.	.	.	.	.	4d\	.	.
*	*	*	*Xlig	*	*	*	*	*	*	*	*
=4-	=4-	=4-	=4-	=4-	=4-	=4-	=4-	=4-	=4-	=4-	=4-
*lig	*	*	*	*	*	*lig	*	*	*lig	*	*
1C	.	.	1c	.	.	1G	.	.	1e	.	.
1D	.	.	1A	-mi-	.	1F	.	.	1d	.	.
*Xlig	*	*	*	*	*	*Xlig	*	*	*Xlig	*	*
=5-	=5-	=5-	=5-	=5-	=5-	=5-	=5-	=5-	=5-	=5-	=5-
2AA/	-mi-	.	1A	-ni	-a	2E/	.	-mi-	2c/	-mi-	.
!LO:SIC:v:custos:D	!	!	!	!	!	!	!	!	!	!	!
2AA/	-ni	-a	.	.	.	2E/	.	-ni,	2c/	-ni	-a-
!LO:LB:g=original	!	!	!	!	!	!	!	!	!	!	!
!	!	!	!	!	!	!LO:SIC:v:custos:D	!	!	!LO:SIC:v:custos:d	!	!
1D	et	gra-	1A	et	gra-	1F	.	et	1d	et	-a
=6-	=6-	=6-	=6-	=6-	=6-	=6-	=6-	=6-	=6-	=6-	=6-
*	*	*	*lig	*	*	*	*	*	*	*	*
!	!	!	!	!	!	!LO:LB:g=original	!	!	!LO:LB:g=original	!	!
!LO:SIC:v:l:s=vi-:verse 1	!	!	!LO:SIC:v:l:s=vi-:verse 1	!	!	!	!	!LO:SIC:v:l:s=vi-:verse 1	!LO:SIC:v:l:s=vi-:verse 1	!	!
!	!	!	!	!	!	!LO:SIC:v:l:s=vi-:verse 2	!	!	!	!	!
4GG/	ui-	.	1G	ui-	.	2D/	-a	ui-	2.d/	ui-	gra
4AA/	.	.	.	.	.	.	.	.	.	.	.
4BB/	.	.	.	.	.	2.d\	gra	-de-	.	.	.
4C/	.	.	.	.	.	.	.	.	4e\	.	.
4D/	.	.	1F	.	.	.	.	.	2f\	.	.
4E\	.	.	.	.	.	4A/	.	.	.	.	.
4F\	.	.	.	.	.	1d\	.	.	2d/	.	.
4D/	.	.	.	.	.	.	.	.	.	.	.
*	*	*	*Xlig	*	*	*	*	*	*	*	*
=7-	=7-	=7-	=7-	=7-	=7-	=7-	=7-	=7-	=7-	=7-	=7-
*	*	*	*lig	*	*	*	*	*	*	*	*
1E	.	.	1G	-de-	.	.	.	.	2.g\	.	.
.	.	.	.	.	.	2c\	.	.	.	.	.
.	.	.	.	.	.	.	.	.	4e\	.	.
2D/	.	.	1A	.	.	2d\	.	.	2f\	.	.
2C/	-de-	-ti-	.	.	.	2e\	.	.	2e\	.	.
*	*	*	*Xlig	*	*	*	*	*	*	*	*
=8-	=8-	=8-	=8-	=8-	=8-	=8-	=8-	=8-	=8-	=8-	=8-
1D	.	-a	1A	-te	-ti-	1f	.	-te	1d	-de-	.
*	*	*	*lig	*	*	*	*	*	*	*	*
1AA	-te	.	1A	fi-	-a	2e\	.	.	1c	-te	.
*	*	*	*	*	*	*lig	*	*	*	*	*
.	.	.	.	.	.	1A\	.	fi-	.	.	.
=9-	=9-	=9-	=9-	=9-	=9-	=9-	=9-	=9-	=9-	=9-	=9-
*lig	*	*	*	*	*	*	*	*	*	*	*
1AA	fi-	ple-	1c	.	.	.	.	.	2r	.	.
*	*	*	*	*	*	*	*	*	*lig	*	*
.	.	.	.	.	.	1c	.	.	1e	fi-	.
*	*	*	*	*	*	*Xlig	*	*	*	*	*
*	*	*	*Xlig	*	*	*	*	*	*	*	*
!	!	!	!LO:SIC:v:custos:G	!	!	!	!	!	!	!	!
1C	.	.	1G	-li-	.	.	.	.	.	.	.
.	.	.	.	.	.	4B/	.	.	1g\	.	.
.	.	.	.	.	.	4A/	.	.	.	.	.
*Xlig	*	*	*	*	*	*	*	*	*Xlig	*	*
=10-	=10-	=10-	=10-	=10-	=10-	=10-	=10-	=10-	=10-	=10-	=10-
*	*	*	*lig	*	*	*	*	*	*	*	*
!	!	!	!LO:LB:g=original	!	!	!	!	!	!	!	!
2GG/	-li-	.	1G	-e	.	2B/	.	-li-	.	.	.
2GG/	-e	-na	.	.	.	2B/	.	-(ae)	2d/	-li-	.
1.D	sii-	ple-	1F	.	.	2A/	.	.	2d/	-ae	.
.	.	.	.	.	.	2.d\	ple-	ſii-	2.f\	ſii-	.
*	*	*	*Xlig	*	*	*	*	*	*	*	*
=11-	=11-	=11-	=11-	=11-	=11-	=11-	=11-	=11-	=11-	=11-	=11-
.	.	.	[<1A	ſii-	ple-	.	.	.	.	.	.
.	.	.	.	.	.	4c\	.	.	4e\	.	.
2E\	.	.	.	.	.	2.c\	.	.	1e	.	.
*lig	*	*	*lig	*	*	*	*	*	*	*	*
1F	.	.	1A]]	.	.	.	.	.	.	.	.
.	.	.	.	.	.	4B\	.	.	.	.	.
.	.	.	.	.	.	1A\	.	.	2d/	.	.
=12-	=12-	=12-	=12-	=12-	=12-	=12-	=12-	=12-	=12-	=12-	=12-
1E	.	.	1B	.	.	.	.	.	1e	.	.
!	!	!	!	!	!	!LO:SIC:v:custos:A	!	!	!	!	!
.	.	.	.	.	.	2G/	-na	.	.	.	.
*Xlig	*	*	*Xlig	*	*	*	*	*	*	*	*
*	*	*	*lig	*	*	*	*	*	*	*	*
!	!	!	!	!	!	!LO:LB:g=original	!	!	!	!	!
2.AA/	.	.	1c	.	.	2.A/	ple-	.	2c/	.	.
.	.	.	.	.	.	.	.	.	2.e\	.	.
!LO:SIC:v:custos:C	!	!	!	!	!	!	!	!	!	!	!
4BB/	.	.	.	.	.	8G/L	.	.	.	.	.
.	.	.	.	.	.	8F/J	.	.	.	.	.
=13-	=13-	=13-	=13-	=13-	=13-	=13-	=13-	=13-	=13-	=13-	=13-
!LO:LB:g=original	!	!	!	!	!	!	!	!	!	!	!
2C/	.	.	1A	.	.	2E/	.	.	.	.	.
!	!	!	!	!	!	!	!	!	!LO:SIC:v:custos:d	!	!
.	.	.	.	.	.	.	.	.	4d\	.	.
!	!	!	!	!	!	!	!	!	!LO:LB:g=original	!	!
2D/	.	.	.	.	.	2F/	.	.	1d	.	.
*	*	*	*Xlig	*	*	*	*	*	*	*	*
1AA	-on	-na	[<1A	-on,	-na	1E	.	.	.	.	.
.	.	.	.	.	.	.	.	.	2c/	.	.
=14-	=14-	=14-	=14-	=14-	=14-	=14-	=14-	=14-	=14-	=14-	=14-
*	*	*	*lig	*	*	*	*	*	*	*	*
4D/	Re-	Do-	1A]	re-	.	2D/	-na	-on	1d	-on	.
4E/	.	.	.	.	.	.	.	.	.	.	.
4F\	.	.	.	.	.	2d\	Do-	Re-	.	.	.
4G\	.	.	.	.	.	.	.	.	.	.	.
2.A\	.	.	1F	.	.	2c\	.	.	2r	.	.
.	.	.	.	.	.	2d\	.	-gi-	1d\	re-	Do-
8G\L	.	.	.	.	.	.	.	.	.	.	.
8F\J	.	.	.	.	.	.	.	.	.	.	.
*	*	*	*Xlig	*	*	*	*	*	*	*	*
=15-	=15-	=15-	=15-	=15-	=15-	=15-	=15-	=15-	=15-	=15-	=15-
*	*	*	*lig	*	*	*	*	*	*	*	*
1E	.	.	1G	-gi-	.	1e	.	-na(m)	.	.	.
.	.	.	.	.	.	.	.	.	2c/	.	.
2D/	.	-mi-	1A	.	.	2f\	.	.	2d\	.	.
2C/	.	-n(us)	.	.	.	2e\	-mi-	ve-	2e\	.	.
*	*	*	*Xlig	*	*	*	*	*	*	*	*
=16-	=16-	=16-	=16-	=16-	=16-	=16-	=16-	=16-	=16-	=16-	=16-
1D	-gi-	te-	1A	-nam	Do-	1d	-n(us)	.	1f	-gi-	.
*	*	*	*lig	*	*	*	*	*	*	*	*
2AA/	-na(m)	-cu(m)	1c	.	.	2c\	.	.	2e\	-na(m)	-mi-
!LO:SIC:v:l:s=ve:verse 1	!	!	!	!	!	!	!	!	!LO:SIC:v:l:s=ve:verse 1	!	!
1C/	ue-	Do-	.	.	.	2G/	.	.	1e\	ue-	-n(us)
=17-	=17-	=17-	=17-	=17-	=17-	=17-	=17-	=17-	=17-	=17-	=17-
.	.	.	1A	.	.	2A/	.	.	.	.	.
2D/	.	-mi-	.	.	.	2F/	.	.	2f\	.	Do-
*	*	*	*Xlig	*	*	*	*	*	*	*	*
*	*	*	*lig	*	*	*	*	*	*	*	*
!	!	!	!LO:SIC:v:l:s=ve:verse 1	!	!	!	!	!	!	!	!
2E/	.	-n(us)	1G	ue-	.	1E	.	.	2g\	.	.
2C/	.	te-	.	.	.	.	.	.	2e\	.	.
=18-	=18-	=18-	=18-	=18-	=18-	=18-	=18-	=18-	=18-	=18-	=18-
2.D/	.	.	1F	.	.	1A	.	.	2.f\	.	.
4C/	.	.	.	.	.	.	.	.	4e\	.	.
*	*	*	*Xlig	*	*	*	*	*	*	*	*
*	*	*	*lig	*	*	*	*	*	*	*	*
!LO:SIC:v:custos:AA	!	!	!	!	!	!	!	!	!	!	!
1BB	.	.	1G	.	-mi-	1D	.	-ſtra(m)	2.d\	.	.
.	.	.	.	.	.	.	.	.	8c/L	.	.
.	.	.	.	.	.	.	.	.	8B/J	.	.
=19-	=19-	=19-	=19-	=19-	=19-	=19-	=19-	=19-	=19-	=19-	=19-
!LO:TX:t=P:problem=brevis omyłkowo zakolorowana i oznaczona "dziubkiem"	!	!	!	!	!	!LO:SIC:v:custos:F	!	!	!	!	!
!LO:LB:g=original	!	!	!	!	!	!LO:SIC:v:l:s=ve:verse 2	!	!	!	!	!
0AA	-ſtra(m)	-cu(m)	1A	.	.	2E/	.	ue-	2c/	.	.
!	!	!	!	!	!	!LO:LB:g=original	!	!	!	!	!
.	.	.	.	.	.	2F/	.	.	1d	.	.
*	*	*	*Xlig	*	*	*	*	*	*	*	*
.	.	.	1A,	-ſtra(m),	-n(us)	1E	.	.	.	.	.
!	!	!	!	!	!	!	!	!	!LO:SIC:v:custos:d	!	!
.	.	.	.	.	.	.	.	.	2c/	.	.
=20-	=20-	=20-	=20-	=20-	=20-	=20-	=20-	=20-	=20-	=20-	=20-
!	!	!	!	!	!	!	!	!	!LO:LB:g=original	!	!
1r	.	.	1F	qua(m)	te-	2D/	.	-ſtram,	1d	-ſtra(m),	-n(us)
.	.	.	.	.	.	1F	te-	quam	.	.	.
1FF	quam	te-	1A	.	.	.	.	.	2r	.	.
.	.	.	.	.	.	1A\	.	.	1c\	quam	te-
=21-	=21-	=21-	=21-	=21-	=21-	=21-	=21-	=21-	=21-	=21-	=21-
*	*	*	*lig	*	*	*	*	*	*	*	*
1AA	.	.	1c	lau-	.	.	.	.	.	.	.
.	.	.	.	.	.	2c\	-cu(m)	.	2.e\	.	.
*lig	*	*	*	*	*	*	*	*	*	*	*
1C	lau-	.	1e	.	.	2.c\	be-	.	.	.	.
.	.	.	.	.	.	.	.	.	4f\	.	.
.	.	.	.	.	.	.	.	.	2g\	lau-	.
.	.	.	.	.	.	4B\	.	lau-	.	.	.
*	*	*	*Xlig	*	*	*	*	*	*	*	*
=22-	=22-	=22-	=22-	=22-	=22-	=22-	=22-	=22-	=22-	=22-	=22-
*	*	*	*lig	*	*	*	*	*	*	*	*
1D	.	.	1d	-da(n)t	.	4A/	.	.	1f	.	.
.	.	.	.	.	.	4G/	.	.	.	.	.
.	.	.	.	.	.	1A	.	-da(n)t	.	.	.
*Xlig	*	*	*	*	*	*	*	*	*	*	*
!	!	!	!LO:SIC:v:custos:c	!	!	!	!	!	!	!	!
1AA	-da(n)t	.	1c	.	.	.	.	.	2e\	-dant	-cu(m)
.	.	.	.	.	.	4G/	.	a-	4e\	.	te-
.	.	.	.	.	.	4F/	.	.	4d\	a-	.
*	*	*	*Xlig	*	*	*	*	*	*	*	*
=23-	=23-	=23-	=23-	=23-	=23-	=23-	=23-	=23-	=23-	=23-	=23-
*	*	*	*	*	*	*lig	*	*	*	*	*
!	!	!	!LO:LB:g=original	!	!	!	!	!	!	!	!
1C	a-	.	1c	a-	-cum	1E	.	.	4c/	.	.
.	.	.	.	.	.	.	.	.	4B/	.	.
.	.	.	.	.	.	.	.	.	1A	.	.
*lig	*	*	*lig	*	*	*	*	*	*	*	*
1BB	-ſtra	-cu(m)	1d	-ſtra	.	1D	.	.	.	.	.
.	.	.	.	.	.	.	.	.	2G/	-ſtra	-cu(m)
*	*	*	*	*	*	*Xlig	*	*	*	*	*
=24-	=24-	=24-	=24-	=24-	=24-	=24-	=24-	=24-	=24-	=24-	=24-
1AA	.	.	1c	.	.	2E/	.	-ſtra	4A/	.	be-
.	.	.	.	.	.	.	.	.	4G/	ma-	.
.	.	.	.	.	.	1e	-ne-	.	4A/	.	.
.	.	.	.	.	.	.	.	.	4B/	.	.
*Xlig	*	*	*Xlig	*	*	*	*	*	*	*	*
4AA/	.	te-	1A	.	be-	.	.	.	4c/	.	.
4BB/	ma-	.	.	.	.	.	.	.	4d\	.	.
4C/	.	.	.	.	.	4d\	.	.	4e\	.	.
!	!	!	!	!	!	!	!	!	!LO:SIC:v:custos:g	!	!
4D/	.	.	.	.	.	4c\	.	.	4f\	.	.
=25-	=25-	=25-	=25-	=25-	=25-	=25-	=25-	=25-	=25-	=25-	=25-
!	!	!	!	!	!	!	!	!	!LO:PB:g=original	!	!
1E	.	.	1G	ma-	.	2B\	.	ma-	2g\	.	.
.	.	.	.	.	.	1G	-dic-	-tu-	2e\	-tu-	-ne-
2C/	-tu-	.	1c	.	-ne-	.	.	.	2.e\	-ti-	-dic-
2.AA/	-ti-	.	.	.	.	2A/	-ta	-ti-	.	.	.
.	.	.	.	.	.	.	.	.	4d/	.	.
=26-	=26-	=26-	=26-	=26-	=26-	=26-	=26-	=26-	=26-	=26-	=26-
*	*	*	*lig	*	*	*	*	*	*	*	*
.	.	.	1c	-tu-	-dic-	1E	tu	-na	4c/	.	.
4BB/	.	.	.	.	.	.	.	.	4B/	.	.
2C/	.	.	.	.	.	.	.	.	1A	.	.
!	!	!	!	!	!	!LO:SIC:v:custos:B	!	!	!	!	!
1BB	.	.	1d	.	.	2r	.	.	.	.	.
!	!	!	!	!	!	!LO:PB:g=original	!	!	!	!	!
.	.	.	.	.	.	2B/	be-	ma-	2G/	.	-cta
*	*	*	*Xlig	*	*	*	*	*	*	*	*
=27-	=27-	=27-	=27-	=27-	=27-	=27-	=27-	=27-	=27-	=27-	=27-
2AA/	-na	-cu(m)	1c	-ti-	.	2c\	-ne-	.	2A/	-na	tu
!LO:SIC:v:custos:D	!	!	!	!	!	!	!	!	!	!	!
2C/	ma-	be-	.	.	.	1A	-di-	-tu-	2e\	.	be-
*	*	*	*lig	*	*	*	*	*	*	*	*
!LO:PB:g=original	!	!	!	!	!	!	!	!	!	!	!
2D/	-tu-	-ne-	1B	-na.	.	.	.	.	2f\	ma-	-ne-
2E/	-ti-	-dic-	.	.	.	2G/	-cta	-ti-	4e\	-tu-	.
.	.	.	.	.	.	.	.	.	4d\	.	.
=28-	=28-	=28-	=28-	=28-	=28-	=28-	=28-	=28-	=28-	=28-	=28-
0AA	-na	-ta	1A	.	.	2A/	.	.	2c/	.	.
.	.	.	.	.	.	4G/	.	.	1d	.	-di-
.	.	.	.	.	.	4F/	.	.	.	.	.
*	*	*	*Xlig	*	*	*	*	*	*	*	*
.	.	.	1A	Cu-	-ta	1E	.	.	.	.	.
.	.	.	.	.	.	.	.	.	2c/	.	-cta
=29-	=29-	=29-	=29-	=29-	=29-	=29-	=29-	=29-	=29-	=29-	=29-
*	*	*	*lig	*	*	*	*	*	*	*	*
1r	.	.	1F	-ius	.	1D	tu	-na,	2.d/	-ti-	tu
.	.	.	.	.	.	.	.	.	4c/	.	in
1E	Cu-	be-	1G	.	.	2r	.	.	2B/	-na	Mu-
.	.	.	.	.	.	2G/	in	Cu-	1e\	cu-	.
*	*	*	*Xlig	*	*	*	*	*	*	*	*
=30-	=30-	=30-	=30-	=30-	=30-	=30-	=30-	=30-	=30-	=30-	=30-
*	*	*	*lig	*	*	*	*	*	*	*	*
2C/	.	-ne-	1A	.	.	2E/	mu-	.	.	.	.
2D/	-ius	.	.	.	.	2F/	-li-	.	1d	.	.
*lig	*	*	*	*	*	*	*	*	*	*	*
1E	.	-di-	1G	.	.	1G	-e-	-ius	.	.	.
.	.	.	.	.	.	.	.	.	2c/	-ius	-li-
*	*	*	*Xlig	*	*	*	*	*	*	*	*
=31-	=31-	=31-	=31-	=31-	=31-	=31-	=31-	=31-	=31-	=31-	=31-
!	!	!	!	!	!	!	!	!	!LO:SIC:v:custos:f	!	!
1D	.	.	1A	pul-	tu	4F/	.	.	2d\	.	-e-
.	.	.	.	.	.	4G/	.	pul-	.	.	.
!	!	!	!	!	!	!	!	!	!LO:LB:g=original	!	!
.	.	.	.	.	.	4A/	-ri-	.	2f\	.	.
.	.	.	.	.	.	4B/	.	.	.	.	.
*Xlig	*	*	*lig	*	*	*	*	*	*	*	*
2.AA/	pul-	-cta	1A	-chri-	in	2c\	-b(us)	.	2.e\	pul-	.
.	.	.	.	.	.	1c\	In	.	.	.	.
4BB/	.	.	.	.	.	.	.	.	4d\	.	.
=32-	=32-	=32-	=32-	=32-	=32-	=32-	=32-	=32-	=32-	=32-	=32-
2C/	-chri-	.	1G	.	.	.	.	.	2c/	-chri-	.
2BB/	.	.	.	.	.	2G/	Mu-	.	2d\	.	.
*	*	*	*Xlig	*	*	*	*	*	*	*	*
*	*	*	*lig	*	*	*	*	*	*	*	*
2AA/	-tu-	.	1c	-tu-	mu-	2A/	-li-	-chri-	2e\	.	.
!	!	!	!	!	!	!LO:SIC:v:custos:G	!	!	!	!	!
2C/	-di-	.	.	.	.	2G/	-e-	-tu-	1c\	-tu-	.
=33-	=33-	=33-	=33-	=33-	=33-	=33-	=33-	=33-	=33-	=33-	=33-
!	!	!	!	!	!	!LO:LB:g=original	!	!	!	!	!
1GG	-ne(m)	tu	1d	.	.	2.G/	-ri-	.	.	.	.
.	.	.	.	.	.	.	.	.	2B/	.	.
.	.	.	.	.	.	4F/	-b(us)	-di-	.	.	.
*	*	*	*Xlig	*	*	*	*	*	*	*	*
2.AA/	ſol	in	1c	-di-	-li-	1E	.	-nem,	1A	-di-	-ri-
4BB/	.	.	.	.	.	.	.	.	.	.	.
=34-	=34-	=34-	=34-	=34-	=34-	=34-	=34-	=34-	=34-	=34-	=34-
2C/	.	.	1c	-(n)e(m)	-e-	2r	.	.	2G/	-ne(m),	-b(us)
2C/	et	mu-	.	.	.	2e\	et	ſol	2g\	Sol,	Et
!LO:SIC:v:custos:E	!	!	!LO:SIC:v:custos:A	!	!	!	!	!	!	!	!
2D/	lu-	-li-	1A	Sol,	-ri-	2d\	.	.	2f\	.	.
!LO:LB:g=original	!	!	!	!	!	!	!	!	!	!	!
2E/	.	-e-	.	.	.	1c\	be-	et	1e\	et	be-
=35-	=35-	=35-	=35-	=35-	=35-	=35-	=35-	=35-	=35-	=35-	=35-
*lig	*	*	*lig	*	*	*	*	*	*	*	*
!	!	!	!LO:LB:g=original	!	!	!	!	!	!	!	!
1F	.	-ri-	1A	et	-b(us)	.	.	.	.	.	.
.	.	.	.	.	.	4B\	.	Lu-	2d\	lu-	-ne-
.	.	.	.	.	.	4A\	.	.	.	.	.
1E	.	.	1G	.	.	2c\	.	.	0e	-na	-di-
.	.	.	.	.	.	2B\	-e-	.	.	.	.
*Xlig	*	*	*Xlig	*	*	*	*	*	*	*	*
=36-	=36-	=36-	=36-	=36-	=36-	=36-	=36-	=36-	=36-	=36-	=36-
*	*	*	*lig	*	*	*	*	*	*	*	*
1AA	-na	-b(us)	1c	Lu-	et	1A	-dic-	-na	.	.	.
*	*	*	*	*	*	*	*	*	*lig	*	*
4D/	.	et	1d	.	.	1A	-t(us)	.	1f	.	.
4E\	mi-	.	.	.	.	.	.	.	.	.	.
4F\	.	.	.	.	.	.	.	.	.	.	.
4G\	.	.	.	.	.	.	.	.	.	.	.
*	*	*	*Xlig	*	*	*	*	*	*	*	*
=37-	=37-	=37-	=37-	=37-	=37-	=37-	=37-	=37-	=37-	=37-	=37-
2.A\	.	be-	1c	-na	be-	2.c\	be-	mi-	1e	.	.
4G\	.	.	.	.	.	4B\	.	-ran-	.	.	.
*	*	*	*	*	*	*	*	*	*Xlig	*	*
2F\	.	.	1c	mi-	-ne-	2A/	-ne-	.	2f\	mi-	-ct(us)
2E\	.	-ne-	.	.	.	2G/	-dic-	.	2g\	.	.
=38-	=38-	=38-	=38-	=38-	=38-	=38-	=38-	=38-	=38-	=38-	=38-
*	*	*	*lig	*	*	*	*	*	*	*	*
1F	-ran-	-dic-	1c	-ran-	-di-	1A	-t(us)	.	1f	.	.
1C	-tur	-t(us)	1e	.	.	0.G	.	-tur,	2e\	.	be-
.	.	.	.	.	.	.	.	.	1c\	.	-ne-
*	*	*	*Xlig	*	*	*	*	*	*	*	*
=39-	=39-	=39-	=39-	=39-	=39-	=39-	=39-	=39-	=39-	=39-	=39-
1r	.	.	1d	.	.	.	.	.	.	.	.
.	.	.	.	.	.	.	.	.	4B/	.	.
!	!	!	!	!	!	!	!	!	!LO:SIC:v:custos:B	!	!
.	.	.	.	.	.	.	.	.	4A/	.	.
*	*	*	*lig	*	*	*	*	*	*	*	*
!	!	!	!	!	!	!	!	!	!LO:LB:g=original	!	!
1GG	.	et	1d	-tur,	-ct(us)	.	.	.	1B	-ran-	-di-
=40-	=40-	=40-	=40-	=40-	=40-	=40-	=40-	=40-	=40-	=40-	=40-
*	*	*	*	*	*	*	*	*ij	*	*	*
2.AA/	mi-	be-	1c	.	.	1.E	.	mi-	2c/	-tur	.
.	.	.	.	.	.	.	.	.	1e	.	.
4BB/	-ran-	.	.	.	.	.	.	.	.	.	.
*	*	*	*Xlig	*	*	*	*	*	*	*	*
*	*	*	*lig	*	*	*	*	*	*	*ij	*
2C/	.	.	1A	et	fru-	.	.	.	.	.	.
2D/	-tur	.	.	.	.	2F/	.	-ran-	4d/	mi-	.
.	.	.	.	.	.	.	.	.	4c/	.	.
=41-	=41-	=41-	=41-	=41-	=41-	=41-	=41-	=41-	=41-	=41-	=41-
!	!	!	!	!	!	!LO:SIC:v:custos:d	!	!	!	!	!
1GG	.	-ne-	1G	.	.	2D/	.	-tur	1d	-ran-	-ct(us)
*	*	*	*	*	*	*	*	*Xij	*	*	*
!	!	!	!	!	!	!LO:LB:g=original	!	!	!	!	!
.	.	.	.	.	.	2d\	Fruc-	et	.	.	.
*lig	*	*	*Xlig	*	*	*	*	*	*	*	*
*	*	*	*lig	*	*	*	*	*	*	*	*
1D	et	-di-	1A	iu-	.	2d\	-t(us)	iu-	1f	.	et
.	.	.	.	.	.	2d\	ven-	-bi-	.	.	.
=42-	=42-	=42-	=42-	=42-	=42-	=42-	=42-	=42-	=42-	=42-	=42-
!LO:SIC:v:custos:D	!	!	!	!	!	!	!	!	!	!	!
1C	.	.	1c	.	.	2G/	-tris	.	1e	-tur	be-
.	.	.	.	.	.	1A	.	-lant	.	.	.
*Xlig	*	*	*Xlig	*	*	*	*	*	*lig	*Xij	*
!LO:LB:g=original	!	!	!	!	!	!	!	!	!	!	!
2D/	iu-	-ct(us)	1A	-bi-	-ct(us)	.	.	.	1d	et	-ne-
2F\	-bi-	e(t)	.	.	.	2F/	tu-	.	.	.	.
=43-	=43-	=43-	=43-	=43-	=43-	=43-	=43-	=43-	=43-	=43-	=43-
*	*	*	*lig	*	*	*	*	*	*	*	*
1E	-lant	be-	1G	-la(n)t	.	1G	-i	om-	1c	.	.
*	*	*	*	*	*	*	*	*	*Xlig	*	*
1D	.	-ne-	1F	.	.	1A	.	-(n)es	2d\	iu-	-di-
.	.	.	.	.	.	.	.	.	2f\	-bi-	.
*	*	*	*Xlig	*	*	*	*	*	*	*	*
=44-	=44-	=44-	=44-	=44-	=44-	=44-	=44-	=44-	=44-	=44-	=44-
*	*	*	*lig	*	*	*	*ij	*	*	*	*
2C/	om-	-di-	1G	om-	ven-	2r	.	.	2e\	.	.
2BB/	.	.	.	.	.	2D/	et	et	1d	-la(n)t	.
1AA	-nes	-ct(us)	1A	.	.	1E	be-	iu-	.	.	.
*	*	*	*	*	*	*	*	*	*	*ij	*
.	.	.	.	.	.	.	.	.	2c/	iu-	.
*	*	*	*Xlig	*	*	*	*	*	*	*	*
=45-	=45-	=45-	=45-	=45-	=45-	=45-	=45-	=45-	=45-	=45-	=45-
*	*	*	*lig	*	*	*	*	*	*	*	*
2D/	et	fruc-	1F	.	.	2F/	-ne-	-bi-	2d/	.	-ct(us)
2BB-X/	iu-	-t(us)	.	.	.	1D	-dic-	-la(n)t	2d/	-bi-	fru-
2GG/	-bi-	ven-	1G	.	.	.	.	.	2B-X/	.	-ct(us)
1C/	-lant	-tris	.	.	.	2E/	-tus	om-	2G/	.	Ven-
*	*	*	*Xlig	*	*	*	*	*	*	*	*
=46-	=46-	=46-	=46-	=46-	=46-	=46-	=46-	=46-	=46-	=46-	=46-
*	*	*	*lig	*	*	*	*	*	*	*	*
.	.	.	1E	.	.	2C/	et	-(n)es	1c	-la(n)t	-tris
2AA/	.	tu-	.	.	.	1c	be-	fi-	.	.	.
*	*	*	*	*	*	*	*	*	*	*Xij	*
2FF/	om-	-i	1F	.	.	.	.	.	2A/	om-	tu-
*	*	*ij	*	*	*	*	*	*	*	*	*
1F\	-(n)es	fru-	.	.	.	2A\	-ne-	-li-	2F/	-(n)es	-i
*	*	*	*Xlig	*	*	*	*	*	*	*	*
=47-	=47-	=47-	=47-	=47-	=47-	=47-	=47-	=47-	=47-	=47-	=47-
!	!	!	!	!	!	!	!	!	!LO:SIC:v:custos:d	!	!
.	.	.	1D	.	.	1F	.	-i	1f	fi-	fruct(us)-
2D/	fi-	.	.	.	.	.	.	.	.	.	.
!	!	!	!LO:SIC:v:custos:D	!	!	!	!	!	!	!	!
!	!	!	!	!	!	!	!	!	!LO:LB:g=original	!	!
2BB-X/	-li-	-ct(us)	1D	-nes	-tris	2.B-X\	-dic-	De-	2d\	-li-	-ct(us)
!	!	!	!	!	!	!	!	!	!LO:TX:t=P:problem=bemol B- na początku systemu, odnoszę go do całego tego konkretnego systemu	!	!
2.GG/	-e	ven-	.	.	.	.	.	.	2B-X/	-i	Ven-
!	!	!	!	!	!	!LO:SIC:v:custos:G	!	!	!	!	!
.	.	.	.	.	.	4A/	.	.	.	.	.
=48-	=48-	=48-	=48-	=48-	=48-	=48-	=48-	=48-	=48-	=48-	=48-
*	*	*	*lig	*	*	*	*	*	*	*	*
!	!	!	!LO:PB:g=original	!	!	!LO:LB:g=original	!	!	!	!	!
.	.	.	1D	fi-	tu-	2G/	.	.	1.d	De-	.
4AA/	De-	.	.	.	.	.	.	.	.	.	.
1BB-	.	.	.	.	.	4F/	.	.	.	.	.
.	.	.	.	.	.	4E/	.	.	.	.	.
.	.	.	1F	.	.	4D/	-ctus	.	.	.	.
.	.	.	.	.	.	4C/	.	.	.	.	.
*	*	*	*	*	*	*	*Xij	*	*	*	*
2AA/	.	-tris	.	.	.	1F/	fruc-	.	2c/	.	.
*	*	*	*Xlig	*	*	*	*	*	*	*	*
=49-	=49-	=49-	=49-	=49-	=49-	=49-	=49-	=49-	=49-	=49-	=49-
*	*	*	*lig	*	*	*	*	*	*	*	*
!LO:SIC:v:custos:FF	!	!	!	!	!	!	!	!	!	!	!
1GG	.	tu-	1G	.	.	.	.	.	1B-y	-i	.
.	.	.	.	.	.	2E/	-t(us)	.	.	.	.
!LO:LB:g=original	!	!	!	!	!	!	!	!	!	!	!
1FF	-i	-i	1A	.	.	4F/	ven-	.	2A/	.	-tris
.	.	.	.	.	.	4G/	.	.	.	.	.
.	.	.	.	.	.	4A/	.	.	2.f\	.	Ven-
.	.	.	.	.	.	4B\	.	.	.	.	.
*	*	*Xij	*Xlig	*	*	*	*	*	*	*	*
=50-	=50-	=50-	=50-	=50-	=50-	=50-	=50-	=50-	=50-	=50-	=50-
*	*	*	*lig	*	*	*	*	*	*	*	*
2.AA/	fi-	Ven-	1A	-lii	-i	1c	.	.	.	.	.
.	.	.	.	.	.	.	.	.	4e\	.	.
.	.	.	.	.	.	.	.	.	2.e\	.	-tris
4BB/	.	.	.	.	.	.	.	.	.	.	.
2C/	.	.	1G	.	.	2C/	.	.	.	.	.
.	.	.	.	.	.	.	.	.	4d\	.	.
2BB/	-li-	.	.	.	.	2D/	-tris	.	1d\	.	tu-
*	*	*	*Xlig	*	*	*	*	*	*	*	*
=51-	=51-	=51-	=51-	=51-	=51-	=51-	=51-	=51-	=51-	=51-	=51-
*	*	*	*lig	*	*	*	*	*	*	*	*
1AA	-i	.	1A	.	.	1E	tu-	-i	.	.	.
.	.	.	.	.	.	.	.	.	2c\	.	-i
1D	.	-tris	1F	.	.	2D/	-i	.	0d	.	.
.	.	.	.	.	.	2A\	Ven-	fi-	.	.	.
*	*	*	*Xlig	*	*	*	*	*	*	*	*
=52-	=52-	=52-	=52-	=52-	=52-	=52-	=52-	=52-	=52-	=52-	=52-
4GG/	De-	tu-	1G	.	.	1B-X	-tris	-li-	.	.	.
4AA/	.	.	.	.	.	.	.	.	.	.	.
4BB/	.	.	.	.	.	.	.	.	.	.	.
4C/	.	.	.	.	.	.	.	.	.	.	.
1D	-i	-i	1F	.	.	1A	.	-i	2r	.	.
.	.	.	.	.	.	.	.	.	1d\	fi-	Fruc-
=53-	=53-	=53-	=53-	=53-	=53-	=53-	=53-	=53-	=53-	=53-	=53-
2r	.	.	1E	.	.	1G	tu-	De-	.	.	.
2G\	fi-	fru-	.	.	.	.	.	.	2c/	-li-	-t(us)
*	*	*	*lig	*	*	*	*	*	*	*	*
2.F\	-li-	-ct(us)	1D	De-	.	0A	-i.	-i	2d\	-i	.
.	.	.	.	.	.	.	.	.	1f\	.	ven-
4E\	-i	.	.	.	.	.	.	.	.	.	.
=54-	=54-	=54-	=54-	=54-	=54-	=54-	=54-	=54-	=54-	=54-	=54-
2.D/	.	.	1F	.	.	.	.	.	.	.	.
.	.	.	.	.	.	.	.	.	4e\	de-	.
8C/L	.	.	.	.	.	.	.	.	4d\	.	.
8BB/J	.	.	.	.	.	.	.	.	.	.	.
*	*	*	*Xlig	*	*	*	*	*	*	*	*
*	*	*	*lig	*	*	*	*	*	*	*	*
!	!	!	!	!	!	!LO:SIC:v:custos:A	!	!	!	!	!
2C/	De-	.	1E	.	.	2r	.	.	4c\	.	.
.	.	.	.	.	.	.	.	.	4d\	.	.
!LO:SIC:v:custos:BB-	!	!	!	!	!	!LO:PB:g=original	!	!	!	!	!
1AA/	-i	ven-	.	.	.	1A\	Fruc-	.	2.e\	.	.
=55-	=55-	=55-	=55-	=55-	=55-	=55-	=55-	=55-	=55-	=55-	=55-
!LO:PB:g=original	!	!	!	!	!	!	!	!	!	!	!
.	.	.	1F	.	.	.	.	.	.	.	.
!	!	!	!	!	!	!	!	!	!LO:SIC:v:custos:d	!	!
.	.	.	.	.	.	.	.	.	4d\	.	.
!	!	!	!	!	!	!	!	!	!LO:PB:g=original	!	!
2BB-X/	fi-	.	.	.	.	2F/	-t(us)	i	1d	.	.
*	*	*	*Xlig	*	*	*	*	*	*	*	*
*	*	*	*lig	*	*	*	*	*	*	*	*
2GG/	-li-	-tris	1E	-i.	.	2B-/	ven-	fi-	.	.	.
2AA/	-i	.	.	.	.	4A/	.	-li-	2c/	.	-tris
.	.	.	.	.	.	4G/	.	-i	.	.	.
=56-	=56-	=56-	=56-	=56-	=56-	=56-	=56-	=56-	=56-	=56-	=56-
2.BB-/	.	tu-	00.D;\	.	.	1F	.	.	2d/	-i	.
.	.	.	.	.	.	.	.	.	1B-X	fi-	tu-
4AA/	De-	.	.	.	.	.	.	.	.	.	.
2GG/	.	.	.	.	.	2G/	-tris	.	.	.	.
2FF/	.	.	.	.	.	2A/	tu-	.	2A/	-li-	.
*	*	*	*Xlig	*	*	*	*	*	*	*	*
=57-	=57-	=57-	=57-	=57-	=57-	=57-	=57-	=57-	=57-	=57-	=57-
1GG	.	.	.	.	.	2B-/	.	.	2G/	-i	.
.	.	.	.	.	.	1G	.	.	2B-y/	De-	-i
!	!	!	!	!	!	!	!	!	!LO:N:vis=00	!	!
0.Dl;<\	-i	.	.	.	.	.	.	.	0.A;	-i	.
.	.	.	.	.	.	4F/	.	De-	.	.	.
.	.	.	.	.	.	4E/	.	.	.	.	.
=58-	=58-	=58-	=58-	=58-	=58-	=58-	=58-	=58-	=58-	=58-	=58-
.	.	-i	.	.	.	0F;	-i	-i	.	.	.
=59-	=59-	=59-	=59-	=59-	=59-	=59-	=59-	=59-	=59-	=59-	=59-
1F	O-	.	1F	O-	.	0c	.	O-	1f	O-	.
*lig	*	*	*lig	*	*	*	*	*	*lig	*	*
1C	-ſten-	.	1G	-ſten-	.	.	.	.	1e	-ſten-	.
=60-	=60-	=60-	=60-	=60-	=60-	=60-	=60-	=60-	=60-	=60-	=60-
*	*	*	*	*	*	*lig	*	*	*	*	*
1F	.	.	1A	.	.	1c	.	-ſten-	1f	.	.
*Xlig	*	*	*Xlig	*	*	*	*	*	*Xlig	*	*
0D	.	.	1A	-dat	.	1d	.	.	1f	-dat	.
*	*	*	*	*	*	*Xlig	*	*	*	*	*
=61-	=61-	=61-	=61-	=61-	=61-	=61-	=61-	=61-	=61-	=61-	=61-
!	!	!	!LO:SIC:v:custos:A	!	!	!	!	!	!	!	!
.	.	.	1A	fa-	.	1d	.	-dat	2.f\	fa-	.
.	.	.	.	.	.	.	.	.	4e\	.	.
!	!	!	!LO:LB:g=original	!	!	!	!	!	!	!	!
2.F\	-dat	.	1A	-ci-	.	2r	.	.	2d/	-ci-	.
.	.	.	.	.	.	1f\	.	fa-	2c/	-em	.
4E/	fa-	.	.	.	.	.	.	.	.	.	.
=62-	=62-	=62-	=62-	=62-	=62-	=62-	=62-	=62-	=62-	=62-	=62-
!	!	!	!	!	!	!	!	!	!LO:SIC:v:custos:e	!	!
2D/	-ci-	.	1A	-em	.	.	.	.	2d/	ſu-	.
!	!	!	!	!	!	!	!	!	!LO:LB:g=original	!	!
!	!	!	!	!	!	!LO:SIC:v:custos:f	!	!	!	!	!
2C/	-em	.	.	.	.	2e\	.	-ci-	2.e\	.	.
!	!	!	!	!	!	!LO:LB:g=original	!	!	!	!	!
!LO:SIC:v:custos:D	!	!	!	!	!	!	!	!	!	!	!
2D/	ſu-	.	1A	ſu-	.	1f	.	-em	.	.	.
.	.	.	.	.	.	.	.	.	4d\	.	.
!LO:LB:g=original	!	!	!	!	!	!	!	!	!	!	!
2D/	.	.	.	.	.	.	.	.	1d\	.	.
=63-	=63-	=63-	=63-	=63-	=63-	=63-	=63-	=63-	=63-	=63-	=63-
1AA	-am	.	1A	-am	.	1e	.	ſu-	.	.	.
.	.	.	.	.	.	.	.	.	2c\	-am	.
1D	ſo-	.	1A	ſo	.	2d\	.	-a(m)	2d\	.	.
.	.	.	.	.	.	2d\	.	ſo-	2f\	ſo-	.
=64-	=64-	=64-	=64-	=64-	=64-	=64-	=64-	=64-	=64-	=64-	=64-
!	!	!	!	!	!	!	!	!	!LO:SIC:v:l:s=-net	!	!
2D/	-net	.	1A	net	.	2d\	.	-net	2f\	-nex	.
!	!	!	!	!	!	!LO:SIC:v:l:s=vox:verse 1	!	!	!LO:SIC:v:l:s=vox:verse 1	!	!
2D/	vox	.	.	.	.	2d\	.	uox	2f\	uox	.
1D	e-	.	1A	vox	.	1d	.	e-	1f	e-	.
=65-	=65-	=65-	=65-	=65-	=65-	=65-	=65-	=65-	=65-	=65-	=65-
1D	-ius	.	1A	e-	.	2d\	.	-ius	2f\	-ius	.
.	.	.	.	.	.	2f\	.	in	2d\	in	.
*	*	*	*	*	*	*	*	*	*lig	*	*
1D	in	.	1A	-ius	.	2.f\	.	au-	1d	au-	.
.	.	.	.	.	.	4e\	.	.	.	.	.
=66-	=66-	=66-	=66-	=66-	=66-	=66-	=66-	=66-	=66-	=66-	=66-
*lig	*	*	*	*	*	*	*	*	*	*	*
1D	au-	.	1A	in	.	2.d\	.	-ri-	1f	.	.
.	.	.	.	.	.	8c\L	.	.	.	.	.
.	.	.	.	.	.	8B\J	.	.	.	.	.
*	*	*	*lig	*	*	*	*	*	*Xlig	*	*
1F	.	.	1A	au-	.	2A/	.	.	2c/	-ri-	.
.	.	.	.	.	.	2F/	.	-bus	2c/	-bus	.
*Xlig	*	*	*	*	*	*	*	*	*	*	*
=67-	=67-	=67-	=67-	=67-	=67-	=67-	=67-	=67-	=67-	=67-	=67-
2C/	-ri-	.	1c	.	.	1G	.	n(os-	1e	n(os-	.
2C/	-bus	.	.	.	.	.	.	.	.	.	.
*	*	*	*Xlig	*	*	*	*	*	*	*	*
1D	n(os-	.	1A	-ri-	.	1F	.	.	2d\	-t)ris	.
.	.	.	.	.	.	.	.	.	2d\	in	.
=68-	=68-	=68-	=68-	=68-	=68-	=68-	=68-	=68-	=68-	=68-	=68-
2AA/	-t)ris	.	1A	-bus	.	1E	.	-t)ris,	2c/	au-	.
!	!	!	!	!	!	!	!	!	!LO:SIC:v:custos:A	!	!
2AA/	in	.	.	.	.	.	.	.	2c/	-ri-	.
*lig	*	*	*lig	*	*	*	*	*	*	*	*
!	!	!	!	!	!	!	!	!	!LO:LB:g=original	!	!
1AA	au-	.	1A	noſ-	.	2r	.	.	4A/	-bus	.
.	.	.	.	.	.	.	.	.	4B/	.	.
!	!	!	!	!	!	!LO:SIC:v:custos:E	!	!	!	!	!
.	.	.	.	.	.	1E/	.	in	4c\	.	.
.	.	.	.	.	.	.	.	.	4d\	.	.
=69-	=69-	=69-	=69-	=69-	=69-	=69-	=69-	=69-	=69-	=69-	=69-
!	!	!	!	!	!	!LO:LB:g=original	!	!	!	!	!
1C	.	.	1G	.	.	.	.	.	2e\	.	.
*	*	*	*	*	*	*lig	*	*	*	*	*
.	.	.	.	.	.	1E	.	au-	1c	.	.
*Xlig	*	*	*Xlig	*	*	*	*	*	*	*	*
*	*	*	*lig	*	*	*	*	*	*	*	*
2GG/	-ri-	.	1G	-tris	.	.	.	.	.	.	.
2GG/	-bus	.	.	.	.	1G/	.	­	2B/	no-	.
*	*	*	*	*	*	*Xlig	*	*	*	*	*
=70-	=70-	=70-	=70-	=70-	=70-	=70-	=70-	=70-	=70-	=70-	=70-
1D	n(os-	.	1A	.	.	.	.	.	2A/	.	.
.	.	.	.	.	.	2F/	.	-ri-	2d\	.	.
*	*	*	*Xlig	*	*	*	*	*	*	*	*
*	*	*	*lig	*	*	*	*	*	*	*	*
2GG/	-t)ris	.	1G	Qui	.	2G/	.	-bus	2B/	.	.
!LO:SIC:v:custos:D	!	!	!	!	!	!	!	!	!	!	!
2C/	qui-	.	.	.	.	2E/	.	n(os-	2c/	.	.
=71-	=71-	=71-	=71-	=71-	=71-	=71-	=71-	=71-	=71-	=71-	=71-
!LO:LB:g=original	!	!	!	!	!	!	!	!	!	!	!
!	!	!	!LO:SIC:v:custos:G	!	!	!	!	!	!	!	!
2D/	-a	.	1F	.	.	1D	.	-t)ris	1A	-ſtris,	.
1F	e-	.	.	.	.	.	.	.	.	.	.
*	*	*	*Xlig	*	*	*	*	*	*	*	*
*	*	*	*lig	*	*	*	*	*	*	*	*
!	!	!	!LO:LB:g=original	!	!	!	!	!	!	!	!
.	.	.	1G	ae-	.	2r	.	.	2r	.	.
2E/	-lo-	.	.	.	.	2G/	.	qui-	2c/	qui-	.
=72-	=72-	=72-	=72-	=72-	=72-	=72-	=72-	=72-	=72-	=72-	=72-
1D	-qui-	.	1A	.	.	2F/	.	-a	2d\	.	.
.	.	.	.	.	.	2F/	.	e-	1f	-a	.
*	*	*	*Xlig	*	*	*	*	*	*	*	*
1C	-um	.	1A	-lo-	.	4c\	.	-lo-	.	.	.
.	.	.	.	.	.	4B\	.	.	.	.	.
.	.	.	.	.	.	4A/	.	.	2e\	e-	.
.	.	.	.	.	.	4G/	.	.	.	.	.
=73-	=73-	=73-	=73-	=73-	=73-	=73-	=73-	=73-	=73-	=73-	=73-
1D	ſu-	.	1A	-qui-	.	2F/	.	.	1d	-lo-	.
.	.	.	.	.	.	2D/	.	-qui-	.	.	.
1AA	-u(m)	.	1A	-iu(m)	.	2E/	.	-u(m)	1c	-qui-	.
.	.	.	.	.	.	2F/	.	ſu-	.	.	.
=74-	=74-	=74-	=74-	=74-	=74-	=74-	=74-	=74-	=74-	=74-	=74-
1.F	.	.	1A	ſu-	.	4D/	.	.	2d/	-um	.
.	.	.	.	.	.	4E/	.	.	.	.	.
.	.	.	.	.	.	4F/	.	.	2A/	.	.
.	.	.	.	.	.	4G/	.	.	.	.	.
.	.	.	1A	-um	.	4A/	.	.	1.f	ſu-	.
!	!	!	!	!	!	!LO:SIC:v:custos:c	!	!	!	!	!
.	.	.	.	.	.	4B\	.	.	.	.	.
!	!	!	!	!	!	!LO:LB:g=original	!	!	!	!	!
2E\	dul-	.	.	.	.	2c\	.	-um	.	.	.
=75-	=75-	=75-	=75-	=75-	=75-	=75-	=75-	=75-	=75-	=75-	=75-
2D/	.	.	1A	dul-	.	2d\	.	.	.	.	.
!	!	!	!	!	!	!	!	!	!LO:SIC:v:custos:d	!	!
2C/	.	.	.	.	.	2e\	.	dul-	2e\	-um	.
!	!	!	!	!	!	!	!	!	!LO:LB:g=original	!	!
1D	.	.	1A	-ce	.	1f	.	.	1d	dul-	.
=76-	=76-	=76-	=76-	=76-	=76-	=76-	=76-	=76-	=76-	=76-	=76-
2AA/	-ce	.	1A	et	.	2e\	.	-ce	1c	-ce,	.
2AA/	et	.	.	.	.	2e\	.	et	.	.	.
2D/	fa-	.	1A	fa-	.	2d\	.	fa-	2r	.	.
2C/	-ci-	.	.	.	.	2e\	.	-ci-	2A/	et	.
=77-	=77-	=77-	=77-	=77-	=77-	=77-	=77-	=77-	=77-	=77-	=77-
2D/	-es	.	1A	-ci-	.	2f\	.	-es	2d\	.	.
2E\	de-	.	.	.	.	2e\	.	de-	2c/	fa-	.
2.F\	-co-	.	1A	-es	.	2d\	.	-co-	2d\	.	.
.	.	.	.	.	.	2c\	.	-ra,	2e\	-ci-	.
4E\	.	.	.	.	.	.	.	.	.	.	.
=78-	=78-	=78-	=78-	=78-	=78-	=78-	=78-	=78-	=78-	=78-	=78-
!LO:SIC:v:custos:C	!	!	!	!	!	!	!	!	!	!	!
2D/	.	.	1A	.	.	2r	.	.	2f\	-es	.
!LO:LB:g=original	!	!	!	!	!	!	!	!	!	!	!
2C/	.	.	.	.	.	2.c\	.	de-	1e	de-	.
*lig	*	*	*lig	*	*	*	*	*	*	*	*
1F	.	.	1A	de-	.	.	.	.	.	.	.
.	.	.	.	.	.	4B\	.	.	.	.	.
.	.	.	.	.	.	1A\	.	.	2d\	-co-	.
=79-	=79-	=79-	=79-	=79-	=79-	=79-	=79-	=79-	=79-	=79-	=79-
1E	.	.	1B	.	.	.	.	.	2.e\	-ra	.
.	.	.	.	.	.	2G/	.	-co-	.	.	.
.	.	.	.	.	.	.	.	.	4d\	de-	.
*Xlig	*	*	*Xlig	*	*	*	*	*	*	*	*
*	*	*	*lig	*	*	*	*	*	*	*	*
2AA/	-ra	.	1c	.	.	2A/	.	-ra	4e\	.	.
.	.	.	.	.	.	.	.	.	4c\	-co-	.
2.FF/	de-	.	.	.	.	1A\	.	ni-	1f\	-ra	.
=80-	=80-	=80-	=80-	=80-	=80-	=80-	=80-	=80-	=80-	=80-	=80-
.	.	.	1A	.	.	.	.	.	.	.	.
4GG/	.	.	.	.	.	.	.	.	.	.	.
4AA/	.	.	.	.	.	4G/	.	.	4e\	.	.
!	!	!	!	!	!	!LO:SIC:v:custos:E	!	!	!	!	!
4BB/	.	.	.	.	.	4F/	.	.	4d\	.	.
*	*	*	*Xlig	*	*	*	*	*	*	*	*
!	!	!	!	!	!	!LO:PB:g=original	!	!	!	!	!
1C	.	.	1G	-co-	.	1E	.	.	2c/	.	.
.	.	.	.	.	.	.	.	.	2c/	.	.
=81-	=81-	=81-	=81-	=81-	=81-	=81-	=81-	=81-	=81-	=81-	=81-
2.D/	.	.	1F	-ra	.	4D/	.	.	2.A/	ni-	.
.	.	.	.	.	.	4E/	.	.	.	.	.
.	.	.	.	.	.	4F/	.	.	.	.	.
8C/L	.	.	.	.	.	4G/	.	.	4B/	.	.
8BB/J	.	.	.	.	.	.	.	.	.	.	.
*	*	*	*lig	*	*	*	*	*	*	*	*
2AA/	.	.	1F	ni-	.	2.A/	.	.	2c/	.	.
2FF/	-co-	.	.	.	.	.	.	.	1d\	.	.
.	.	.	.	.	.	4G/	.	.	.	.	.
=82-	=82-	=82-	=82-	=82-	=82-	=82-	=82-	=82-	=82-	=82-	=82-
2GG/	-ra	.	1E	.	.	2B-X\	.	.	.	.	.
2AA/	ni	.	.	.	.	4A\	.	.	2c/	.	.
.	.	.	.	.	.	4G/	.	.	.	.	.
*lig	*	*	*Xlig	*	*	*	*	*	*	*	*
!	!	!	!	!	!	!	!	!	!LO:TX:t=P:problem=liczby nad longami określają długość trwania wersetu 	!	!
!	!	!	!LO:TX:b:t=3	!	!	!	!	!	!LO:TX:b:t=3	!	!
!	!	!	!LO:TX:a:t=18	!	!	!	!	!	!LO:TX:a:t=18	!	!
1BB-X	.	.	0.Dl/	-mis	.	1B-	.	.	0.dl;<	-mis,	.
=83-	=83-	=83-	=83-	=83-	=83-	=83-	=83-	=83-	=83-	=83-	=83-
!	!	!	!	!	!	!LO:TX:b:t=2	!	!	!	!	!
!	!	!	!	!	!	!LO:TX:a:t=19	!	!	!	!	!
1GG	.	.	.	.	.	0Al;\	.	-mis;	.	.	.
*Xlig	*	*	*	*	*	*	*	*	*	*	*
!LO:TX:b:t=20	!	!	!	!	!	!	!	!	!	!	!
!LO:TX:t=P:problem=tekst pod nutą i prawdopodobnie fermata zaklejone	!	!	!	!	!	!	!	!	!	!	!
1D	.	.	.	.	.	.	.	.	.	.	.
==	==	==	==	==	==	==	==	==	==	==	==
*-	*-	*-	*-	*-	*-	*-	*-	*-	*-	*-	*-
!!!system-decoration: [(s1,s2,s3,s4)]
!!!ENC: Mateusz Solarz
!!!END: 2022-03-01
!!!AIN: 1 alto 1 bass 1 soprn 1 tenor
!!!ENC: Kamil Watkowski
!!!END: 2022-03-12
!!!RDF**kern: l = terminal long
!!!RDF**kern: > = above
!!!RDF**kern: < = below
